public/tools-icons/react.svg

<svg xmlns="http://www.w3.org/2000/svg" width="24" height="24" fill="none"><path fill="#c8c2ff" d="M14.23 12.004C14.23 12.5968 13.9946 13.1654 13.5754 13.5847C13.1563 14.004 12.5879 14.2397 11.995 14.24C11.402 14.24 10.8332 14.0044 10.4139 13.5851C9.99458 13.1657 9.759 12.597 9.759 12.004C9.759 11.4111 9.99444 10.8425 10.4136 10.4232C10.8327 10.0039 11.4011 9.76823 11.994 9.76796C12.587 9.76796 13.1558 10.0035 13.5751 10.4229C13.9944 10.8422 14.23 11.4109 14.23 12.004ZM16.878 1.31396C15.532 1.31396 13.771 2.27397 11.99 3.93597C10.21 2.28297 8.448 1.33396 7.103 1.33396C6.693 1.33396 6.32 1.42696 5.997 1.61196C4.622 2.40496 4.314 4.87596 5.024 7.97696C1.98 8.91697 0 10.42 0 12.004C0 13.594 1.99 15.101 5.043 16.034C4.339 19.147 4.653 21.622 6.031 22.414C6.351 22.601 6.721 22.689 7.133 22.689C8.478 22.689 10.24 21.729 12.021 20.065C13.801 21.719 15.563 22.668 16.908 22.668C17.318 22.668 17.691 22.578 18.014 22.393C19.388 21.601 19.697 19.13 18.987 16.028C22.02 15.096 24 13.59 24 12.004C24 10.414 22.01 8.90696 18.957 7.97196C19.661 4.86196 19.347 2.38496 17.969 1.59196C17.651 1.40796 17.282 1.31496 16.878 1.31396ZM16.873 2.40396V2.40996C17.098 2.40996 17.279 2.45396 17.431 2.53696C18.097 2.91896 18.386 4.37196 18.161 6.24096C18.107 6.70096 18.019 7.18597 17.911 7.68096C16.951 7.44496 15.905 7.26396 14.804 7.14696C14.144 6.24196 13.459 5.41996 12.769 4.69996C14.361 3.21996 15.856 2.40796 16.874 2.40496L16.873 2.40396ZM7.103 2.42396C8.115 2.42396 9.617 3.23196 11.213 4.70396C10.527 5.42396 9.843 6.24096 9.193 7.14596C8.086 7.26296 7.039 7.44396 6.08 7.68396C5.968 7.19396 5.885 6.71996 5.826 6.26396C5.596 4.39596 5.88 2.94396 6.54 2.55696C6.73 2.46696 6.94 2.42896 7.103 2.42396ZM11.985 5.47396C12.44 5.94196 12.895 6.46596 13.345 7.03796C12.905 7.01796 12.455 7.00396 12 7.00396C11.54 7.00396 11.085 7.01396 10.64 7.03796C11.08 6.46596 11.535 5.94296 11.985 5.47396ZM12 8.09997C12.74 8.09997 13.477 8.13396 14.202 8.19296C14.608 8.77496 15.004 9.39597 15.385 10.053C15.757 10.693 16.095 11.343 16.403 11.999C16.095 12.654 15.757 13.309 15.39 13.949C15.01 14.609 14.617 15.237 14.21 15.819C13.482 15.882 12.744 15.917 12 15.917C11.26 15.917 10.523 15.882 9.798 15.824C9.392 15.242 8.996 14.62 8.615 13.964C8.243 13.324 7.905 12.674 7.597 12.018C7.9 11.361 8.243 10.705 8.61 10.064C8.99 9.40396 9.383 8.77796 9.79 8.19596C10.518 8.13196 11.256 8.09796 12 8.09796V8.09997ZM8.365 8.35396C8.125 8.73096 7.885 9.11696 7.661 9.51396C7.436 9.90396 7.226 10.296 7.026 10.688C6.761 10.032 6.536 9.37796 6.35 8.74096C6.99 8.59096 7.665 8.45696 8.365 8.35396ZM15.625 8.35396C16.32 8.45696 16.99 8.58396 17.631 8.74096C17.451 9.37296 17.226 10.023 16.971 10.674C16.771 10.284 16.561 9.89096 16.331 9.49996C16.106 9.10796 15.866 8.72597 15.626 8.35396H15.625ZM18.688 9.02896C19.172 9.17897 19.632 9.34597 20.063 9.52697C21.795 10.267 22.915 11.235 22.915 12.003C22.91 12.771 21.79 13.743 20.058 14.478C19.638 14.658 19.178 14.82 18.703 14.971C18.423 14.013 18.057 13.015 17.603 11.991C18.053 10.974 18.413 9.98096 18.688 9.02697V9.02896ZM5.293 9.03296C5.571 9.99296 5.938 10.99 6.393 12.013C5.943 13.03 5.581 14.023 5.307 14.977C4.823 14.827 4.363 14.659 3.937 14.477C2.205 13.74 1.085 12.771 1.085 12.003C1.085 11.235 2.205 10.261 3.937 9.52697C4.357 9.34696 4.817 9.18496 5.293 9.03296ZM16.971 13.313C17.236 13.97 17.461 14.625 17.647 15.261C17.007 15.418 16.331 15.551 15.631 15.651C15.871 15.276 16.111 14.889 16.336 14.493C16.561 14.103 16.77 13.705 16.971 13.313ZM7.026 13.333C7.226 13.725 7.436 14.116 7.666 14.508C7.896 14.898 8.131 15.28 8.371 15.651C7.676 15.549 7.006 15.421 6.365 15.265C6.545 14.635 6.771 13.983 7.025 13.332L7.026 13.333ZM17.92 16.32C18.032 16.813 18.12 17.288 18.174 17.743C18.404 19.611 18.12 21.063 17.46 21.451C17.313 21.541 17.122 21.579 16.897 21.579C15.885 21.579 14.383 20.772 12.787 19.299C13.473 18.579 14.157 17.763 14.807 16.859C15.914 16.741 16.961 16.56 17.92 16.32ZM6.09 16.33C7.05 16.564 8.096 16.745 9.197 16.862C9.857 17.767 10.542 18.589 11.232 19.308C9.637 20.791 8.14 21.603 7.122 21.603C6.902 21.598 6.716 21.553 6.569 21.471C5.903 21.091 5.614 19.637 5.839 17.768C5.893 17.308 5.982 16.824 6.09 16.33ZM10.65 16.97C11.09 16.99 11.54 17.004 11.995 17.004C12.455 17.004 12.91 16.994 13.355 16.97C12.915 17.542 12.46 18.065 12.01 18.535C11.555 18.065 11.1 17.542 10.65 16.97Z"/></svg>

<svg xmlns="http://www.w3.org/2000/svg" width="24" height="24" fill="none" viewBox="0 0 24 24"><path fill="#c8c2ff" d="M14.23 12.004a2.236 2.236 0 1 1-4.471 0 2.236 2.236 0 0 1 4.471 0m2.648-10.69c-1.346 0-3.107.96-4.888 2.622-1.78-1.653-3.542-2.602-4.887-2.602-.41 0-.783.093-1.106.278-1.375.793-1.683 3.264-.973 6.365C1.98 8.917 0 10.42 0 12.004c0 1.59 1.99 3.097 5.043 4.03-.704 3.113-.39 5.588.988 6.38.32.187.69.275 1.102.275 1.345 0 3.107-.96 4.888-2.624 1.78 1.654 3.542 2.603 4.887 2.603.41 0 .783-.09 1.106-.275 1.374-.792 1.683-3.263.973-6.365C22.02 15.096 24 13.59 24 12.004c0-1.59-1.99-3.097-5.043-4.032.704-3.11.39-5.587-.988-6.38a2.16 2.16 0 0 0-1.091-.278m-.005 1.09v.006c.225 0 .406.044.558.127.666.382.955 1.835.73 3.704-.054.46-.142.945-.25 1.44a23.5 23.5 0 0 0-3.107-.534A24 24 0 0 0 12.769 4.7c1.592-1.48 3.087-2.292 4.105-2.295zm-9.77.02c1.012 0 2.514.808 4.11 2.28-.686.72-1.37 1.537-2.02 2.442a23 23 0 0 0-3.113.538 15 15 0 0 1-.254-1.42c-.23-1.868.054-3.32.714-3.707.19-.09.4-.128.563-.133m4.882 3.05q.684.704 1.36 1.564-.661-.032-1.345-.034-.691-.001-1.36.034c.44-.572.895-1.095 1.345-1.564M12 8.1c.74 0 1.477.034 2.202.093a26.4 26.4 0 0 1 2.201 3.806c-.308.655-.646 1.31-1.013 1.95-.38.66-.773 1.288-1.18 1.87a25.6 25.6 0 0 1-4.412.005 27 27 0 0 1-1.183-1.86q-.557-.961-1.018-1.946a25 25 0 0 1 1.013-1.954c.38-.66.773-1.286 1.18-1.868A25 25 0 0 1 12 8.098zm-3.635.254c-.24.377-.48.763-.704 1.16q-.336.585-.635 1.174a21 21 0 0 1-.676-1.947 24 24 0 0 1 2.015-.387m7.26 0q1.044.153 2.006.387c-.18.632-.405 1.282-.66 1.933a26 26 0 0 0-1.345-2.32zm3.063.675q.727.226 1.375.498c1.732.74 2.852 1.708 2.852 2.476-.005.768-1.125 1.74-2.857 2.475-.42.18-.88.342-1.355.493a24 24 0 0 0-1.1-2.98c.45-1.017.81-2.01 1.085-2.964zm-13.395.004c.278.96.645 1.957 1.1 2.98a23 23 0 0 0-1.086 2.964c-.484-.15-.944-.318-1.37-.5-1.732-.737-2.852-1.706-2.852-2.474s1.12-1.742 2.852-2.476c.42-.18.88-.342 1.356-.494m11.678 4.28c.265.657.49 1.312.676 1.948-.64.157-1.316.29-2.016.39a26 26 0 0 0 1.34-2.338m-9.945.02c.2.392.41.783.64 1.175q.345.586.705 1.143a22 22 0 0 1-2.006-.386c.18-.63.406-1.282.66-1.933zM17.92 16.32c.112.493.2.968.254 1.423.23 1.868-.054 3.32-.714 3.708-.147.09-.338.128-.563.128-1.012 0-2.514-.807-4.11-2.28.686-.72 1.37-1.536 2.02-2.44a23 23 0 0 0 3.113-.539m-11.83.01c.96.234 2.006.415 3.107.532.66.905 1.345 1.727 2.035 2.446-1.595 1.483-3.092 2.295-4.11 2.295a1.2 1.2 0 0 1-.553-.132c-.666-.38-.955-1.834-.73-3.703.054-.46.143-.944.251-1.438m4.56.64q.661.032 1.345.034.691.001 1.36-.034c-.44.572-.895 1.095-1.345 1.565q-.684-.706-1.36-1.565"/></svg>
